Arcticons/scalable/apps/dicer.svg

<svg id="Layer_2" data-name="Layer 2" viewBox="0 0 48 48" xmlns="http://www.w3.org/2000/svg">
 <defs>
  <style>.cls-1{fill:none;stroke:#fff;stroke-linecap:round;stroke-linejoin:round;}</style>
 </defs>
 <path class="cls-1" d="m7.5 5.5a2 2 0 0 0-2 2v33a2 2 0 0 0 2 2h33a2 2 0 0 0 2-2v-33a2 2 0 0 0-2-2zm5.3 3.65a3.65 3.65 0 1 1-3.65 3.65 3.65 3.65 0 0 1 3.65-3.65zm22.4 0a3.65 3.65 0 1 1-3.65 3.65 3.66 3.66 0 0 1 3.65-3.65zm-11.2 11.2a3.64 3.64 0 0 1 3.65 3.65 3.64 3.64 0 0 1-3.65 3.65 3.64 3.64 0 0 1-3.65-3.65 3.64 3.64 0 0 1 3.65-3.65zm-11.2 11.2a3.64 3.64 0 0 1 3.65 3.65 3.65 3.65 0 0 1-3.65 3.65 3.66 3.66 0 0 1-3.65-3.65 3.65 3.65 0 0 1 3.65-3.65zm22.4 0a3.65 3.65 0 0 1 3.65 3.65 3.66 3.66 0 0 1-3.65 3.65 3.65 3.65 0 0 1-3.65-3.65 3.64 3.64 0 0 1 3.65-3.65z"/>
</svg>

<svg id="Layer_2" data-name="Layer 2" xmlns="http://www.w3.org/2000/svg" viewBox="0 0 48 48"><defs><style>.cls-1{fill:none;stroke:#fff;stroke-linecap:round;stroke-linejoin:round;}</style></defs><path class="cls-1" d="M7.5,5.5a2,2,0,0,0-2,2v33a2,2,0,0,0,2,2h33a2,2,0,0,0,2-2V7.5a2,2,0,0,0-2-2Zm5.3,3.65A3.65,3.65,0,1,1,9.15,12.8,3.65,3.65,0,0,1,12.8,9.15Zm22.4,0a3.65,3.65,0,1,1-3.65,3.65A3.66,3.66,0,0,1,35.2,9.15ZM24,20.35A3.64,3.64,0,0,1,27.65,24h0A3.64,3.64,0,0,1,24,27.65h0A3.64,3.64,0,0,1,20.35,24h0A3.64,3.64,0,0,1,24,20.35ZM12.8,31.55a3.64,3.64,0,0,1,3.65,3.65h0a3.65,3.65,0,0,1-3.65,3.65h0A3.66,3.66,0,0,1,9.15,35.2h0a3.65,3.65,0,0,1,3.65-3.65Zm22.4,0a3.65,3.65,0,0,1,3.65,3.65h0a3.66,3.66,0,0,1-3.65,3.65h0a3.65,3.65,0,0,1-3.65-3.65h0a3.64,3.64,0,0,1,3.65-3.65Z"/></svg>
